X: 121
T:Hexham Quadrille
% Nottingham Music Database
S:AA, via EF
Y:ABC
M:6/8
K:G
P:A
d|"G"gfg dBG|"G"BAG "Em"E2D|"G"GAB BAG|"G"GBe "D7"d2d|
"G"gfg dBG|"G"BAG "Em"E2D|"G"GBd "D7"DFA|"G"BGG G2:|
P:B
B|"D7"c2A F2D|"G"G2B d2B|"C"cec "D7"AFD|"G"GBd "D7"gfa|
"G"gdB GBd|"C"ecG EGe|"G/d"dBG "D7"DFA|"G"BGG G2:|
P:C
d|"G"dBd gbg|"C"ece "A7"a2g|"D7"fef def|"G"gba "D7"gfe|
"G"dBd gbg|"C"ece "A7"a2g|"D7"fed cBA|"G"BGG G2:|


